X:12019
T:Love, Lie Beside Me
R:March
C:Trad.
O:Ireland
Z:Paul Hardy's Session Tunebook 2015 (see www.paulhardy.net). Creative Commons cc by-nc-sa licenced.
M:2/2
L:1/8
Q:1/2=65
K:G
Bc|"G"d2 d2 d2 ed|"Am"c2 c2 c2 dc|"G"B2 B2 c2 BA|"Am"BABc "G"d4|"G"d2 B2 dBAG|"Am"A2 A2 BA G2|"Em"G2 G2 AGE>A|"G"GEDE "C"C2:|
|:EG|"G"AGED DE G2|"Am"A2 A2 BA G2|"G"B2 B2 cB A2|"Am"BABc "G"d4|"G"d2 B2 cBAG|"Am"A2 A2 BA G2|"Em"G2 G2 AGE>A|"G"GEDE "C"C2:|

